; generated by Slic3r 1.3.0-dev on 2018-04-04 at 21:52:22

; external perimeters extrusion width = 0.40mm (2.11mm^3/s)
; perimeters extrusion width = 0.48mm (3.77mm^3/s)
; infill extrusion width = 0.48mm (7.54mm^3/s)
; solid infill extrusion width = 0.48mm (7.54mm^3/s)
; top infill extrusion width = 0.48mm (6.28mm^3/s)

M104 S215 ; set temperature
G28 ; home all axes
G1 Z5 F5000 ; lift nozzle

; Filament gcode

M109 S215 ; set temperature and wait for it to be reached
G21 ; set units to millimeters
G90 ; use absolute coordinates
M82 ; use absolute distances for extrusion
G92 E0
G1 E-6.00000 F2100.00000
G92 E0
G1 Z0.500 F7800.000
G1 X49.918 Y84.101 F7800.000
G1 E6.00000 F2100.00000
G1 F1080
G1 X51.993 Y82.992 E6.27939
G1 X53.209 Y82.488 E6.43570
G1 X55.460 Y81.806 E6.71509
G1 X56.059 Y81.654 E6.78847
G1 X57.182 Y81.423 E6.92465
G1 X58.532 Y81.286 E7.08583
G1 X141.468 Y81.286 E16.93570
G1 X142.818 Y81.423 E17.09687
G1 X143.941 Y81.654 E17.23305
G1 X144.540 Y81.806 E17.30643
G1 X146.791 Y82.488 E17.58582
G1 X148.007 Y82.992 E17.74214
G1 X150.082 Y84.101 E18.02152
G1 X151.176 Y84.832 E18.17785
G1 X152.995 Y86.325 E18.45723
G1 X153.925 Y87.255 E18.61354
G1 X155.418 Y89.074 E18.89293
G1 X156.149 Y90.168 E19.04925
G1 X157.258 Y92.243 E19.32865
G1 X157.762 Y93.459 E19.48495
G1 X158.425 Y95.646 E19.75641
G1 X158.714 Y97.595 E19.99040
G1 X158.714 Y102.405 E20.56169
G1 X158.425 Y104.354 E20.79570
G1 X157.762 Y106.541 E21.06713
G1 X157.258 Y107.757 E21.22346
G1 X156.149 Y109.832 E21.50284
G1 X155.418 Y110.926 E21.65914
G1 X153.925 Y112.745 E21.93854
G1 X152.995 Y113.675 E22.09486
G1 X151.176 Y115.168 E22.37425
G1 X150.082 Y115.899 E22.53056
G1 X148.007 Y117.008 E22.80995
G1 X146.791 Y117.512 E22.96627
G1 X144.540 Y118.194 E23.24566
G1 X143.941 Y118.346 E23.31904
G1 X142.818 Y118.577 E23.45523
G1 X141.468 Y118.714 E23.61639
G1 X58.532 Y118.714 E33.46627
G1 X57.182 Y118.577 E33.62744
G1 X56.059 Y118.346 E33.76362
G1 X55.460 Y118.194 E33.83700
G1 X53.209 Y117.512 E34.11639
G1 X51.993 Y117.008 E34.27270
G1 X49.918 Y115.899 E34.55209
G1 X48.824 Y115.168 E34.70841
G1 X47.005 Y113.675 E34.98780
G1 X46.075 Y112.745 E35.14411
G1 X44.582 Y110.926 E35.42350
G1 X43.851 Y109.832 E35.57982
G1 X42.742 Y107.757 E35.85920
G1 X42.238 Y106.541 E36.01552
G1 X41.575 Y104.354 E36.28697
G1 X41.286 Y102.405 E36.52097
G1 X41.286 Y97.595 E37.09226
G1 X41.575 Y95.646 E37.32626
G1 X42.238 Y93.459 E37.59771
G1 X42.742 Y92.243 E37.75402
G1 X43.851 Y90.168 E38.03341
G1 X44.582 Y89.074 E38.18972
G1 X46.075 Y87.255 E38.46911
G1 X47.005 Y86.325 E38.62543
G1 X48.824 Y84.832 E38.90482
G1 X49.868 Y84.134 E39.05401
G1 E33.05401 F2100.00000
G92 E0
G1 X100.000 Y101.645 F7800.000
G1 E6.00000 F2100.00000
G1 F540
G1 X98.922 Y103.949 E6.30212
G1 X97.509 Y105.662 E6.56587
G1 X95.658 Y107.124 E6.84600
G1 X93.447 Y108.300 E7.14341
G1 X90.957 Y109.162 E7.45630
G1 X88.277 Y109.689 E7.78071
G1 X85.500 Y109.866 E8.11122
G1 X82.723 Y109.689 E8.44174
G1 X80.043 Y109.162 E8.76615
G1 X77.553 Y108.300 E9.07904
G1 X75.342 Y107.124 E9.37645
G1 X73.491 Y105.662 E9.65657
G1 X72.078 Y103.949 E9.92033
G1 X71.182 Y102.034 E10.17144
G1 X70.873 Y100.000 E10.41573
G1 X71.182 Y97.966 E10.66001
G1 X72.078 Y96.051 E10.91112
G1 X73.491 Y94.338 E11.17488
G1 X75.342 Y92.876 E11.45500
G1 X77.553 Y91.700 E11.75241
G1 X80.043 Y90.838 E12.06531
G1 X82.723 Y90.311 E12.38971
G1 X85.500 Y90.134 E12.72023
G1 X88.277 Y90.311 E13.05075
G1 X90.957 Y90.838 E13.37515
G1 X93.447 Y91.700 E13.68805
G1 X95.658 Y92.876 E13.98546
G1 X97.509 Y94.338 E14.26558
G1 X98.922 Y96.051 E14.52934
G1 X100.000 Y98.355 E14.83146
G1 X101.078 Y96.051 E15.13358
G1 X102.491 Y94.338 E15.39733
G1 X104.342 Y92.876 E15.67745
G1 X106.553 Y91.700 E15.97487
G1 X109.043 Y90.838 E16.28776
G1 X111.723 Y90.311 E16.61217
G1 X114.500 Y90.134 E16.94268
G1 X117.277 Y90.311 E17.27320
G1 X119.957 Y90.838 E17.59761
G1 X122.447 Y91.700 E17.91050
G1 X124.658 Y92.876 E18.20791
G1 X126.509 Y94.338 E18.48803
G1 X127.922 Y96.051 E18.75179
G1 X128.818 Y97.966 E19.00290
G1 X129.127 Y100.000 E19.24719
G1 X128.818 Y102.034 E19.49147
G1 X127.922 Y103.949 E19.74258
G1 X126.509 Y105.662 E20.00634
G1 X124.658 Y107.124 E20.28646
G1 X122.447 Y108.300 E20.58387
G1 X119.957 Y109.162 E20.89676
G1 X117.277 Y109.689 E21.22117
G1 X114.500 Y109.866 E21.55169
G1 X111.723 Y109.689 E21.88220
G1 X109.043 Y109.162 E22.20661
G1 X106.553 Y108.300 E22.51950
G1 X104.342 Y107.124 E22.81691
G1 X102.491 Y105.662 E23.09704
G1 X101.078 Y103.949 E23.36079
G1 X100.025 Y101.699 E23.65579
G1 X99.174 Y101.519 F7800.000
G1 F378
G1 X99.127 Y101.824 E23.69246
G1 X98.313 Y103.564 E23.92058
G1 X97.006 Y105.149 E24.16454
G1 X95.266 Y106.523 E24.42797
G1 X93.161 Y107.643 E24.71114
G1 X90.771 Y108.471 E25.01151
G1 X88.185 Y108.979 E25.32446
G1 X85.500 Y109.151 E25.64403
G1 X82.815 Y108.979 E25.96359
G1 X80.229 Y108.471 E26.27654
G1 X77.839 Y107.643 E26.57691
G1 X75.734 Y106.523 E26.86008
G1 X73.994 Y105.149 E27.12351
G1 X72.687 Y103.564 E27.36748
G1 X71.873 Y101.824 E27.59559
G1 X71.595 Y100.000 E27.81474
G1 X71.873 Y98.176 E28.03389
G1 X72.687 Y96.436 E28.26200
G1 X73.994 Y94.851 E28.50597
G1 X75.734 Y93.477 E28.76940
G1 X77.839 Y92.357 E29.05257
G1 X80.229 Y91.529 E29.35294
G1 X82.815 Y91.021 E29.66589
G1 X85.500 Y90.849 E29.98545
G1 X88.185 Y91.021 E30.30502
G1 X90.771 Y91.529 E30.61797
G1 X93.161 Y92.357 E30.91834
G1 X95.266 Y93.477 E31.20151
G1 X97.006 Y94.851 E31.46494
G1 X98.313 Y96.436 E31.70891
G1 X99.127 Y98.176 E31.93702
G1 X99.405 Y100.000 E32.15617
G1 X99.183 Y101.460 E32.33152
G1 X99.425 Y101.698 F7800.000
G1 X100.789 Y101.274 F7800.000
G1 F378
G1 X100.595 Y100.000 E32.48451
G1 X100.873 Y98.176 E32.70365
G1 X101.687 Y96.436 E32.93177
G1 X102.994 Y94.851 E33.17573
G1 X104.734 Y93.477 E33.43916
G1 X106.839 Y92.357 E33.72234
G1 X109.229 Y91.529 E34.02271
G1 X111.815 Y91.021 E34.33566
G1 X114.500 Y90.849 E34.65522
G1 X117.185 Y91.021 E34.97479
G1 X119.771 Y91.529 E35.28774
G1 X122.161 Y92.357 E35.58811
G1 X124.266 Y93.477 E35.87128
G1 X126.006 Y94.851 E36.13471
G1 X127.313 Y96.436 E36.37867
G1 X128.127 Y98.176 E36.60679
G1 X128.405 Y100.000 E36.82594
G1 X128.127 Y101.824 E37.04508
G1 X127.313 Y103.564 E37.27320
G1 X126.006 Y105.149 E37.51716
G1 X124.266 Y106.523 E37.78059
G1 X122.161 Y107.643 E38.06376
G1 X119.771 Y108.471 E38.36414
G1 X117.185 Y108.979 E38.67708
G1 X114.500 Y109.151 E38.99665
G1 X111.815 Y108.979 E39.31621
G1 X109.229 Y108.471 E39.62916
G1 X106.839 Y107.643 E39.92953
G1 X104.734 Y106.523 E40.21271
G1 X102.994 Y105.149 E40.47614
G1 X101.687 Y103.564 E40.72010
G1 X100.873 Y101.824 E40.94822
G1 X100.798 Y101.333 E41.00725
G1 X100.416 Y101.128 F7800.000
G1 X100.000 Y96.671 F7800.000
G1 F540
G1 X99.530 Y95.667 E41.13888
G1 X98.011 Y93.825 E41.42243
G1 X96.050 Y92.276 E41.71925
G1 X93.733 Y91.044 E42.03090
G1 X91.257 Y90.186 E42.34217
G1 X91.317 Y89.828 E42.38521
G1 X108.683 Y89.828 E44.44772
G1 X108.743 Y90.186 E44.49076
G1 X106.267 Y91.044 E44.80203
G1 X103.950 Y92.276 E45.11368
G1 X101.989 Y93.825 E45.41050
G1 X100.470 Y95.667 E45.69405
G1 X100.025 Y96.616 E45.81855
G1 E39.81855 F2100.00000
G92 E0
G1 X100.000 Y103.329 F7800.000
G1 E6.00000 F2100.00000
G1 F540
G1 X100.470 Y104.333 E6.13163
G1 X101.989 Y106.175 E6.41518
G1 X103.950 Y107.724 E6.71200
G1 X106.267 Y108.956 E7.02365
G1 X108.743 Y109.814 E7.33492
G1 X108.683 Y110.172 E7.37796
G1 X91.317 Y110.172 E9.44047
G1 X91.257 Y109.814 E9.48351
G1 X93.733 Y108.956 E9.79478
G1 X96.050 Y107.724 E10.10643
G1 X98.011 Y106.175 E10.40325
G1 X99.530 Y104.333 E10.68680
G1 X99.975 Y103.384 E10.81130
G1 E4.81130 F2100.00000
G92 E0
G1 X79.743 Y109.814 F7800.000
G1 E6.00000 F2100.00000
G1 F540
G1 X79.683 Y110.172 E6.04304
G1 X58.718 Y110.172 E8.53299
G1 X57.859 Y109.995 E8.63711
G1 X55.861 Y109.389 E8.88510
G1 X54.104 Y108.450 E9.12172
G1 X52.564 Y107.186 E9.35833
G1 X51.300 Y105.646 E9.59494
G1 X50.361 Y103.889 E9.83155
G1 X49.828 Y102.134 E10.04939
G1 X49.828 Y97.866 E10.55626
G1 X50.361 Y96.111 E10.77410
G1 X51.300 Y94.354 E11.01071
G1 X52.564 Y92.814 E11.24733
G1 X54.104 Y91.550 E11.48394
G1 X55.861 Y90.611 E11.72055
G1 X57.859 Y90.005 E11.96855
G1 X58.718 Y89.828 E12.07267
G1 X79.683 Y89.828 E14.56262
G1 X79.743 Y90.186 E14.60566
G1 X77.267 Y91.044 E14.91693
G1 X74.950 Y92.276 E15.22858
G1 X72.989 Y93.825 E15.52540
G1 X71.470 Y95.667 E15.80895
G1 X70.492 Y97.757 E16.08305
G1 X70.151 Y100.000 E16.35247
G1 X70.492 Y102.243 E16.62190
G1 X71.470 Y104.333 E16.89600
G1 X72.989 Y106.175 E17.17955
G1 X74.950 Y107.724 E17.47637
G1 X77.267 Y108.956 E17.78802
G1 X79.687 Y109.795 E18.09216
G1 E12.09216 F2100.00000
G92 E0
G1 X120.257 Y109.814 F7800.000
G1 E6.00000 F2100.00000
G1 F540
G1 X122.733 Y108.956 E6.31127
G1 X125.050 Y107.724 E6.62292
G1 X127.011 Y106.175 E6.91974
G1 X128.530 Y104.333 E7.20329
G1 X129.508 Y102.243 E7.47739
G1 X129.849 Y100.000 E7.74681
G1 X129.508 Y97.757 E8.01624
G1 X128.530 Y95.667 E8.29034
G1 X127.011 Y93.825 E8.57389
G1 X125.050 Y92.276 E8.87071
G1 X122.733 Y91.044 E9.18236
G1 X120.257 Y90.186 E9.49363
G1 X120.317 Y89.828 E9.53667
G1 X141.282 Y89.828 E12.02661
G1 X142.030 Y89.982 E12.11729
G1 X144.143 Y90.613 E12.37914
G1 X145.896 Y91.550 E12.61528
G1 X147.436 Y92.814 E12.85189
G1 X148.700 Y94.354 E13.08850
G1 X149.639 Y96.111 E13.32511
G1 X150.172 Y97.866 E13.54296
G1 X150.172 Y102.134 E14.04982
G1 X149.639 Y103.889 E14.26766
G1 X148.700 Y105.646 E14.50428
G1 X147.436 Y107.186 E14.74089
G1 X145.896 Y108.450 E14.97750
G1 X144.139 Y109.389 E15.21411
G1 X142.141 Y109.995 E15.46211
G1 X141.282 Y110.172 E15.56623
G1 X120.317 Y110.172 E18.05618
G1 X120.267 Y109.873 E18.09209
G1 X120.257 Y110.886 F7800.000
G1 F540
G1 X58.645 Y110.886 E25.40938
G1 X57.683 Y110.688 E25.52602
G1 X55.586 Y110.052 E25.78628
G1 X53.705 Y109.047 E26.03960
G1 X52.056 Y107.694 E26.29292
G1 X50.703 Y106.045 E26.54624
G1 X49.698 Y104.164 E26.79955
G1 X49.114 Y102.240 E27.03833
G1 X49.114 Y97.760 E27.57036
G1 X49.698 Y95.836 E27.80914
G1 X50.703 Y93.955 E28.06246
G1 X52.056 Y92.306 E28.31578
G1 X53.705 Y90.953 E28.56910
G1 X55.586 Y89.948 E28.82242
G1 X57.683 Y89.312 E29.08267
G1 X58.645 Y89.114 E29.19932
G1 X141.355 Y89.114 E39.02231
G1 X142.204 Y89.289 E39.12533
G1 X144.416 Y89.949 E39.39944
G1 X146.295 Y90.953 E39.65247
G1 X147.944 Y92.306 E39.90579
G1 X149.297 Y93.955 E40.15911
G1 X150.302 Y95.836 E40.41243
G1 X150.886 Y97.760 E40.65121
G1 X150.886 Y102.240 E41.18324
G1 X150.302 Y104.164 E41.42201
G1 X149.297 Y106.045 E41.67533
G1 X147.944 Y107.694 E41.92865
G1 X146.295 Y109.047 E42.18197
G1 X144.414 Y110.052 E42.43529
G1 X142.317 Y110.688 E42.69555
G1 X141.355 Y110.886 E42.81219
G1 X120.317 Y110.886 E45.31077
G1 X120.257 Y111.600 F7800.000
G1 F378
G1 X58.573 Y111.600 E52.63667
G1 X57.507 Y111.381 E52.76584
G1 X55.312 Y110.715 E53.03836
G1 X53.306 Y109.643 E53.30838
G1 X51.549 Y108.201 E53.57841
G1 X50.107 Y106.444 E53.84844
G1 X49.035 Y104.438 E54.11846
G1 X48.400 Y102.346 E54.37818
G1 X48.400 Y97.654 E54.93537
G1 X49.035 Y95.562 E55.19508
G1 X50.107 Y93.556 E55.46511
G1 X51.549 Y91.799 E55.73514
G1 X53.306 Y90.357 E56.00516
G1 X55.312 Y89.285 E56.27519
G1 X57.507 Y88.619 E56.54771
G1 X58.573 Y88.400 E56.67688
G1 X141.427 Y88.400 E66.51710
G1 X142.379 Y88.595 E66.63246
G1 X144.689 Y89.285 E66.91883
G1 X146.694 Y90.357 E67.18875
G1 X148.451 Y91.799 E67.45878
G1 X149.893 Y93.556 E67.72881
G1 X150.965 Y95.562 E67.99883
G1 X151.600 Y97.654 E68.25855
G1 X151.600 Y102.346 E68.81574
G1 X150.965 Y104.438 E69.07545
G1 X149.893 Y106.444 E69.34548
G1 X148.451 Y108.201 E69.61550
G1 X146.694 Y109.643 E69.88553
G1 X144.688 Y110.715 E70.15556
G1 X142.493 Y111.381 E70.42808
G1 X141.427 Y111.600 E70.55724
G1 X120.317 Y111.600 E73.06444
G1 X120.056 Y111.254 F7800.000
G1 X119.932 Y110.035 F7800.000
G1 F360
G1 X119.363 Y110.090 E73.14192
G1 F360
G1 X118.793 Y110.146 E73.21072
G1 F360
G1 X118.224 Y110.201 E73.27082
G1 F360
G1 X117.655 Y110.256 E73.32223
G1 F360
G1 X117.339 Y110.286 E73.34597
G1 X116.631 Y110.309 E73.39883
G1 F360
G1 X115.217 Y110.354 E73.48222
G1 F360
G1 X114.490 Y110.376 E73.51415
G1 X113.076 Y110.331 E73.57631
G1 F360
G1 X111.630 Y110.284 E73.66157
G1 F360
G1 X111.060 Y110.229 E73.70429
G1 F360
G1 X110.491 Y110.173 E73.75570
G1 F360
G1 X109.922 Y110.118 E73.81580
G1 F360
G1 X109.353 Y110.062 E73.88459
G1 F360
G1 X109.068 Y110.035 E73.92334
G1 X107.415 Y109.775 F7800.000
G1 F360
G1 X107.109 Y109.723 E73.92644
G1 F360
G1 X106.802 Y109.671 E73.93472
G1 F360
G1 X106.495 Y109.620 E73.94815
G1 F360
G1 X106.188 Y109.568 E73.96675
G1 F360
G1 X105.378 Y109.405 E74.02984
G1 X104.561 Y109.533 F7800.000
G1 F1080
G1 X104.713 Y109.382 E74.05754
G1 X104.818 Y108.879 E74.12389
G1 X104.361 Y108.636 E74.19073
G1 X103.463 Y109.533 E74.35467
G1 X102.365 Y109.533 E74.49646
G1 X103.644 Y108.254 E74.73003
G1 X103.029 Y107.771 E74.83101
G1 X101.267 Y109.533 E75.15278
G1 X100.169 Y109.533 E75.29456
G1 X102.416 Y107.287 E75.70481
G1 X101.802 Y106.802 E75.80576
G1 X99.071 Y109.533 E76.30449
G1 X97.973 Y109.533 E76.44628
G1 X101.260 Y106.246 E77.04652
G1 X100.764 Y105.644 E77.14724
G1 X96.875 Y109.533 E77.85738
G1 X95.777 Y109.533 E77.99917
G1 X100.268 Y105.043 E78.81919
G1 X100.076 Y104.810 E78.85811
G1 X98.589 Y106.612 E79.15977
G1 X96.518 Y108.249 E79.50062
G1 X95.334 Y108.878 E79.67381
G1 X95.182 Y109.030 E79.70147
G1 X94.622 Y109.405 F7800.000
G1 F360
G1 X93.812 Y109.568 E79.76703
G1 F360
G1 X93.505 Y109.620 E79.78821
G1 F360
G1 X93.198 Y109.671 E79.80423
G1 F360
G1 X92.891 Y109.723 E79.81508
G1 F360
G1 X92.585 Y109.775 E79.82077
G1 X90.932 Y110.035 F7800.000
G1 F360
G1 X90.363 Y110.090 E79.89826
G1 F360
G1 X89.793 Y110.146 E79.96705
G1 F360
G1 X89.224 Y110.201 E80.02715
G1 F360
G1 X88.655 Y110.256 E80.07856
G1 F360
G1 X88.339 Y110.286 E80.10230
G1 X87.631 Y110.309 E80.15516
G1 F360
G1 X86.217 Y110.354 E80.23855
G1 F360
G1 X85.490 Y110.376 E80.27048
G1 X84.076 Y110.331 E80.33264
G1 F360
G1 X82.630 Y110.284 E80.41790
G1 F360
G1 X82.361 Y110.258 E80.43714
G1 X82.361 Y110.258 F7800.000
G1 F360
G1 X81.788 Y110.202 E80.48509
G1 F360
G1 X81.215 Y110.146 E80.54165
G1 F360
G1 X80.642 Y110.091 E80.60679
G1 F360
G1 X80.068 Y110.035 E80.68054
G1 X78.415 Y109.775 F7800.000
G1 F360
G1 X78.109 Y109.723 E80.68365
G1 F360
G1 X77.802 Y109.671 E80.69192
G1 F360
G1 X77.495 Y109.620 E80.70535
G1 F360
G1 X77.188 Y109.568 E80.72395
G1 F360
G1 X76.378 Y109.405 E80.78704
G1 X75.561 Y109.533 F7800.000
G1 F1080
G1 X75.713 Y109.382 E80.81273
G1 X75.818 Y108.879 E80.87428
G1 X75.413 Y108.663 E80.92923
G1 X74.543 Y109.533 E81.07661
G1 X73.524 Y109.533 E81.19858
G1 X74.748 Y108.309 E81.40586
G1 X74.634 Y108.249 E81.42140
G1 X74.163 Y107.877 E81.49328
G1 X72.506 Y109.533 E81.77389
G1 X71.487 Y109.533 E81.89587
G1 X73.594 Y107.427 E82.25259
G1 X73.025 Y106.978 E82.33943
G1 X70.469 Y109.533 E82.77228
G1 X69.451 Y109.533 E82.89426
G1 X72.476 Y106.508 E83.40667
G1 X72.016 Y105.950 E83.49332
G1 X68.432 Y109.533 E84.10027
G1 X67.414 Y109.533 E84.22225
G1 X71.555 Y105.392 E84.92375
G1 X71.095 Y104.833 E85.01039
G1 X66.395 Y109.533 E85.80643
G1 X65.377 Y109.533 E85.92840
G1 X70.724 Y104.186 E86.83407
G1 X70.399 Y103.492 E86.92581
G1 X64.358 Y109.533 E87.94898
G1 X63.340 Y109.533 E88.07095
G1 X70.074 Y102.799 E89.21163
G1 X69.877 Y102.376 E89.26746
G1 X69.824 Y102.030 E89.30938
G1 X62.321 Y109.533 E90.58018
G1 X61.303 Y109.533 E90.70216
G1 X69.690 Y101.146 E92.12271
G1 X69.555 Y100.262 E92.22982
G1 X60.284 Y109.533 E93.80011
G1 X59.266 Y109.533 E93.92209
G1 X69.617 Y99.182 E95.67530
G1 X69.799 Y97.981 E95.82078
G1 X58.327 Y109.454 E97.76392
G1 X57.959 Y109.378 E97.80888
G1 X57.518 Y109.244 E97.86412
G1 X70.393 Y96.369 E100.04483
G1 E94.04483 F2100.00000
G92 E0
G1 X75.611 Y91.151 F7800.000
G1 E6.00000 F2100.00000
G1 F1080
G1 X75.814 Y90.948 E6.03428
G1 X75.713 Y90.467 E6.09323
G1 X75.277 Y90.467 E6.14546
G1 X56.736 Y109.007 E9.28574
G1 X56.060 Y108.802 E9.37042
G1 X55.971 Y108.754 E9.38251
G1 X74.258 Y90.467 E12.47996
G1 X73.240 Y90.467 E12.60194
G1 X55.307 Y108.400 E15.63931
G1 X54.643 Y108.045 E15.72944
G1 X72.221 Y90.467 E18.70672
G1 X71.203 Y90.467 E18.82870
