; generated by Slic3r 1.3.0-dev on 2018-04-07 at 13:05:56

; external perimeters extrusion width = 0.40mm (2.64mm^3/s)
; perimeters extrusion width = 0.42mm (4.01mm^3/s)
; infill extrusion width = 0.42mm (8.02mm^3/s)
; solid infill extrusion width = 0.42mm (8.02mm^3/s)
; top infill extrusion width = 0.42mm (6.68mm^3/s)

M190 S50 ; set bed temperature and wait for it to be reached
M104 S215 ; set temperature
G28 ; home all axes
G1 Z5 F5000 ; lift nozzle

; Filament gcode

M109 S215 ; set temperature and wait for it to be reached
G21 ; set units to millimeters
G90 ; use absolute coordinates
M82 ; use absolute distances for extrusion
G92 E0
G1 E-6.00000 F2100.00000
G92 E0
G1 Z0.600 F7800.000
G1 X50.280 Y83.862 F7800.000
G1 E6.00000 F2100.00000
G1 F1080
G1 X51.156 Y83.366 E6.11956
G1 X52.192 Y82.855 E6.25680
G1 X53.183 Y82.438 E6.38445
G1 X54.272 Y82.053 E6.52166
G1 X55.384 Y81.735 E6.65900
G1 X56.511 Y81.487 E6.79607
G1 X57.321 Y81.352 E6.89362
G1 X58.265 Y81.286 E7.00597
G1 X141.735 Y81.286 E16.91935
G1 X142.680 Y81.353 E17.03186
G1 X143.408 Y81.472 E17.11943
G1 X144.314 Y81.662 E17.22939
G1 X145.208 Y81.895 E17.33907
G1 X146.090 Y82.172 E17.44890
G1 X146.958 Y82.493 E17.55884
G1 X147.808 Y82.855 E17.66854
G1 X148.640 Y83.259 E17.77834
G1 X149.452 Y83.703 E17.88829
G1 X150.239 Y84.186 E17.99799
G1 X151.003 Y84.708 E18.10788
G1 X151.739 Y85.266 E18.21758
G1 X152.450 Y85.861 E18.32760
G1 X153.129 Y86.490 E18.43760
G1 X153.775 Y87.148 E18.54710
G1 X154.388 Y87.839 E18.65688
G1 X154.968 Y88.560 E18.76672
G1 X155.511 Y89.308 E18.87654
G1 X156.017 Y90.083 E18.98639
G1 X156.485 Y90.882 E19.09640
G1 X156.912 Y91.700 E19.20597
G1 X157.299 Y92.540 E19.31580
G1 X157.645 Y93.400 E19.42589
G1 X157.948 Y94.274 E19.53573
G1 X158.207 Y95.162 E19.64561
G1 X158.422 Y96.059 E19.75522
G1 X158.647 Y97.320 E19.90728
G1 X158.714 Y98.265 E20.01981
G1 X158.714 Y101.735 E20.43198
G1 X158.647 Y102.680 E20.54451
G1 X158.528 Y103.410 E20.63234
G1 X158.372 Y104.168 E20.72425
G1 X158.206 Y104.842 E20.80663
G1 X158.016 Y105.508 E20.88895
G1 X157.754 Y106.300 E20.98804
G1 X157.507 Y106.958 E21.07144
G1 X157.238 Y107.599 E21.15406
G1 X156.947 Y108.229 E21.23641
G1 X156.595 Y108.918 E21.32832
G1 X156.180 Y109.650 E21.42827
G1 X155.814 Y110.239 E21.51061
G1 X155.425 Y110.815 E21.59320
G1 X155.018 Y111.374 E21.67536
G1 X154.589 Y111.920 E21.75777
G1 X154.139 Y112.450 E21.84039
G1 X153.615 Y113.020 E21.93229
G1 X153.127 Y113.513 E22.01463
G1 X152.621 Y113.987 E22.09702
G1 X151.983 Y114.536 E22.19698
G1 X151.438 Y114.969 E22.27969
G1 X150.880 Y115.379 E22.36188
G1 X150.308 Y115.769 E22.44413
G1 X149.720 Y116.138 E22.52663
G1 X149.119 Y116.485 E22.60902
G1 X148.433 Y116.846 E22.70105
G1 X147.807 Y117.145 E22.78343
G1 X147.171 Y117.421 E22.86581
G1 X146.392 Y117.721 E22.96490
G1 X145.727 Y117.947 E23.04832
G1 X144.985 Y118.168 E23.14034
G1 X144.312 Y118.339 E23.22271
G1 X143.635 Y118.485 E23.30508
G1 X142.804 Y118.629 E23.40517
G1 X141.735 Y118.714 E23.53252
G1 X58.265 Y118.714 E33.44591
G1 X57.321 Y118.647 E33.55833
G1 X56.592 Y118.528 E33.64596
G1 X55.912 Y118.390 E33.72840
G1 X55.238 Y118.227 E33.81072
G1 X54.570 Y118.040 E33.89316
G1 X53.833 Y117.801 E33.98523
G1 X53.182 Y117.562 E34.06757
G1 X52.540 Y117.299 E34.14996
G1 X51.908 Y117.013 E34.23229
G1 X51.288 Y116.703 E34.31468
G1 X50.679 Y116.371 E34.39706
G1 X50.082 Y116.017 E34.47942
G1 X49.500 Y115.641 E34.56175
G1 X48.931 Y115.244 E34.64415
G1 X48.377 Y114.826 E34.72651
G1 X47.839 Y114.389 E34.80889
G1 X47.318 Y113.931 E34.89126
G1 X46.708 Y113.350 E34.99134
G1 X46.170 Y112.792 E35.08345
G1 X45.708 Y112.274 E35.16583
G1 X45.266 Y111.740 E35.24817
G1 X44.844 Y111.190 E35.33052
G1 X44.443 Y110.624 E35.41287
G1 X44.062 Y110.044 E35.49528
G1 X43.633 Y109.328 E35.59439
G1 X43.297 Y108.713 E35.67768
G1 X42.987 Y108.092 E35.76003
G1 X42.701 Y107.460 E35.84253
G1 X42.409 Y106.742 E35.93457
G1 X42.172 Y106.090 E36.01694
G1 X41.960 Y105.429 E36.09932
G1 X41.773 Y104.762 E36.18166
G1 X41.610 Y104.088 E36.26403
G1 X41.472 Y103.408 E36.34641
G1 X41.352 Y102.678 E36.43425
G1 X41.286 Y101.735 E36.54650
G1 X41.286 Y98.265 E36.95867
G1 X41.353 Y97.321 E37.07107
G1 X41.578 Y96.058 E37.22341
G1 X41.895 Y94.793 E37.37833
G1 X42.099 Y94.130 E37.46068
G1 X42.327 Y93.475 E37.54305
G1 X42.794 Y92.328 E37.69011
G1 X43.088 Y91.700 E37.77248
G1 X43.405 Y91.083 E37.85485
G1 X43.820 Y90.350 E37.95487
G1 X44.186 Y89.761 E38.03723
G1 X44.574 Y89.186 E38.11969
G1 X44.982 Y88.626 E38.20200
G1 X45.412 Y88.080 E38.28446
G1 X45.860 Y87.551 E38.36677
G1 X46.327 Y87.040 E38.44907
G1 X46.814 Y86.545 E38.53143
G1 X47.318 Y86.069 E38.61385
G1 X47.902 Y85.559 E38.70596
G1 X48.442 Y85.123 E38.78835
G1 X48.997 Y84.708 E38.87070
G1 X49.568 Y84.313 E38.95305
G1 X50.228 Y83.893 E39.04603
G1 E33.04603 F2100.00000
G92 E0
G1 X90.611 Y101.693 F7800.000
G1 E6.00000 F2100.00000
G1 F540
G1 X89.449 Y101.820 E6.13879
G1 X87.086 Y102.147 E6.42213
G1 X85.443 Y102.414 E6.61986
G1 X83.070 Y102.859 E6.90659
G1 X80.720 Y103.371 E7.19224
G1 X79.160 Y103.752 E7.38294
G1 X77.617 Y104.160 E7.57255
G1 X76.086 Y104.598 E7.76156
G1 X74.603 Y105.054 E7.94588
G1 X72.324 Y105.817 E8.23129
G1 X70.119 Y106.632 E8.51052
G1 X68.663 Y107.213 E8.69664
G1 X67.231 Y107.820 E8.88142
G1 X65.817 Y108.453 E9.06539
G1 X64.424 Y109.114 E9.24851
G1 X62.347 Y110.172 E9.52539
G1 X58.426 Y110.172 E9.99102
G1 X57.866 Y110.072 E10.05858
G1 X57.249 Y109.922 E10.13404
G1 X56.295 Y109.606 E10.25338
G1 X55.371 Y109.197 E10.37338
G1 X54.492 Y108.699 E10.49338
G1 X53.666 Y108.117 E10.61338
G1 X52.900 Y107.457 E10.73338
G1 X52.204 Y106.725 E10.85339
G1 X51.582 Y105.929 E10.97339
G1 X51.042 Y105.075 E11.09339
G1 X50.597 Y104.194 E11.21057
G1 X50.259 Y103.333 E11.32044
G1 X49.987 Y102.397 E11.43618
G1 X49.828 Y101.563 E11.53708
G1 X49.828 Y98.426 E11.90961
G1 X49.928 Y97.866 E11.97717
G1 X50.078 Y97.249 E12.05263
G1 X50.224 Y96.770 E12.11198
G1 X50.587 Y95.828 E12.23198
G1 X50.803 Y95.371 E12.29200
G1 X51.301 Y94.492 E12.41200
G1 X51.883 Y93.666 E12.53201
G1 X52.543 Y92.900 E12.65201
G1 X52.900 Y92.543 E12.71203
G1 X53.275 Y92.204 E12.77205
G1 X54.071 Y91.582 E12.89205
G1 X54.925 Y91.042 E13.01205
G1 X55.371 Y90.803 E13.07210
G1 X55.806 Y90.597 E13.12927
G1 X56.667 Y90.259 E13.23913
G1 X57.603 Y89.987 E13.35488
G1 X58.437 Y89.828 E13.45576
G1 X62.339 Y89.828 E13.91915
G1 X64.425 Y90.887 E14.19694
G1 X66.523 Y91.867 E14.47196
G1 X68.665 Y92.787 E14.74882
G1 X70.848 Y93.646 E15.02745
G1 X73.070 Y94.441 E15.30775
G1 X75.327 Y95.173 E15.58961
G1 X77.618 Y95.840 E15.87291
G1 X79.937 Y96.442 E16.15753
G1 X82.284 Y96.977 E16.44335
G1 X84.653 Y97.446 E16.73024
G1 X87.043 Y97.847 E17.01805
G1 X89.450 Y98.180 E17.30665
G1 X91.871 Y98.444 E17.59589
G1 X94.303 Y98.640 E17.88563
G1 X96.738 Y98.767 E18.17521
G1 X98.371 Y98.813 E18.36924
G1 X100.000 Y98.828 E18.56269
G1 X101.634 Y98.813 E18.75676
G1 X104.072 Y98.732 E19.04649
G1 X106.509 Y98.583 E19.33648
G1 X108.938 Y98.364 E19.62606
G1 X111.354 Y98.076 E19.91509
G1 X113.712 Y97.727 E20.19818
G1 X115.351 Y97.445 E20.39573
G1 X117.717 Y96.977 E20.68212
G1 X120.059 Y96.443 E20.96741
G1 X121.613 Y96.048 E21.15783
G1 X123.150 Y95.625 E21.34716
G1 X124.673 Y95.173 E21.53587
G1 X126.187 Y94.691 E21.72450
G1 X128.416 Y93.918 E22.00478
G1 X130.608 Y93.082 E22.28342
G1 X132.055 Y92.487 E22.46915
G1 X133.482 Y91.865 E22.65410
G1 X135.571 Y90.889 E22.92795
G1 X137.652 Y89.829 E23.20529
G1 X141.620 Y89.834 E23.67658
G1 X142.502 Y90.012 E23.78337
G1 X143.469 Y90.306 E23.90337
G1 X144.402 Y90.692 E24.02337
G1 X144.854 Y90.920 E24.08339
G1 X145.720 Y91.439 E24.20339
G1 X146.133 Y91.730 E24.26341
G1 X146.532 Y92.041 E24.32343
G1 X147.281 Y92.720 E24.44344
G1 X147.629 Y93.086 E24.50345
G1 X148.270 Y93.867 E24.62346
G1 X148.831 Y94.707 E24.74346
G1 X149.080 Y95.146 E24.80348
G1 X149.512 Y96.060 E24.92348
G1 X149.694 Y96.531 E24.98350
G1 X149.988 Y97.498 E25.10350
G1 X150.171 Y98.419 E25.21496
G1 X150.166 Y101.609 E25.59385
G1 X150.046 Y102.250 E25.67134
G1 X149.813 Y103.115 E25.77768
G1 X149.561 Y103.818 E25.86636
G1 X149.196 Y104.629 E25.97205
G1 X148.765 Y105.400 E26.07687
G1 X148.347 Y106.027 E26.16643
G1 X147.796 Y106.724 E26.27188
G1 X147.283 Y107.276 E26.36145
G1 X146.629 Y107.877 E26.46690
G1 X146.035 Y108.341 E26.55646
G1 X145.294 Y108.830 E26.66191
G1 X144.629 Y109.196 E26.75211
G1 X143.945 Y109.509 E26.84141
G1 X143.109 Y109.814 E26.94708
G1 X142.252 Y110.046 E27.05253
G1 X141.568 Y110.172 E27.13507
G1 X137.653 Y110.172 E27.60003
G1 X135.571 Y109.111 E27.87756
G1 X133.482 Y108.135 E28.15141
G1 X132.055 Y107.513 E28.33634
G1 X130.644 Y106.932 E28.51752
G1 X128.416 Y106.082 E28.80069
G1 X126.186 Y105.309 E29.08101
G1 X124.673 Y104.827 E29.26964
G1 X123.150 Y104.375 E29.45835
G1 X121.613 Y103.952 E29.64769
G1 X120.034 Y103.551 E29.84107
G1 X117.721 Y103.024 E30.12289
G1 X116.135 Y102.702 E30.31507
G1 X113.756 Y102.279 E30.60206
G1 X111.354 Y101.924 E30.89041
G1 X108.937 Y101.636 E31.17945
G1 X106.509 Y101.417 E31.46902
G1 X104.116 Y101.270 E31.75373
G1 X102.440 Y101.206 E31.95298
G1 X100.000 Y101.171 E32.24283
G1 X97.560 Y101.206 E32.53264
G1 X95.927 Y101.268 E32.72663
G1 X94.290 Y101.361 E32.92136
G1 X91.870 Y101.556 E33.20974
G1 X90.671 Y101.687 E33.35305
G1 X90.689 Y102.403 F7800.000
G1 F540
G1 X89.537 Y102.529 E33.49063
G1 X87.192 Y102.853 E33.77175
G1 X85.566 Y103.117 E33.96744
G1 X83.212 Y103.559 E34.25190
G1 X80.881 Y104.067 E34.53528
G1 X79.336 Y104.444 E34.72411
G1 X77.806 Y104.849 E34.91205
G1 X76.290 Y105.282 E35.09938
G1 X74.821 Y105.734 E35.28180
G1 X72.562 Y106.491 E35.56485
G1 X70.375 Y107.299 E35.84168
G1 X68.935 Y107.874 E36.02583
G1 X67.516 Y108.474 E36.20884
G1 X66.116 Y109.102 E36.39102
G1 X64.737 Y109.756 E36.57234
G1 X62.523 Y110.886 E36.86754
G1 X58.363 Y110.886 E37.36160
G1 X57.719 Y110.771 E37.43932
G1 X57.060 Y110.611 E37.51982
G1 X56.546 Y110.455 E37.58359
G1 X56.038 Y110.273 E37.64778
G1 X55.538 Y110.066 E37.71196
G1 X55.050 Y109.835 E37.77615
G1 X54.573 Y109.580 E37.84033
G1 X54.110 Y109.302 E37.90451
G1 X53.660 Y109.002 E37.96870
G1 X53.226 Y108.680 E38.03288
G1 X52.808 Y108.337 E38.09706
G1 X52.408 Y107.974 E38.16125
G1 X52.026 Y107.592 E38.22543
G1 X51.663 Y107.192 E38.28961
G1 X51.320 Y106.774 E38.35380
G1 X50.998 Y106.340 E38.41798
G1 X50.698 Y105.891 E38.48216
G1 X50.420 Y105.427 E38.54635
G1 X50.165 Y104.950 E38.61055
G1 X49.941 Y104.478 E38.67265
G1 X49.585 Y103.572 E38.78825
G1 X49.425 Y103.067 E38.85119
G1 X49.290 Y102.555 E38.91402
G1 X49.114 Y101.630 E39.02587
G1 X49.114 Y98.363 E39.41388
G1 X49.229 Y97.719 E39.49161
G1 X49.389 Y97.060 E39.57210
G1 X49.545 Y96.546 E39.63588
G1 X49.727 Y96.037 E39.70007
G1 X49.934 Y95.538 E39.76425
G1 X50.165 Y95.050 E39.82843
G1 X50.420 Y94.573 E39.89262
G1 X50.698 Y94.109 E39.95680
G1 X50.998 Y93.660 E40.02098
G1 X51.320 Y93.226 E40.08517
G1 X51.663 Y92.808 E40.14935
G1 X52.026 Y92.408 E40.21353
G1 X52.408 Y92.026 E40.27772
G1 X52.808 Y91.663 E40.34190
G1 X53.226 Y91.320 E40.40608
G1 X53.660 Y90.998 E40.47027
G1 X54.109 Y90.698 E40.53445
G1 X54.573 Y90.420 E40.59864
G1 X55.050 Y90.165 E40.66283
G1 X55.522 Y89.941 E40.72494
G1 X56.428 Y89.585 E40.84054
G1 X56.933 Y89.425 E40.90348
G1 X57.445 Y89.290 E40.96631
G1 X58.370 Y89.114 E41.07815
G1 X62.519 Y89.114 E41.57093
G1 X64.738 Y90.245 E41.86666
G1 X66.815 Y91.216 E42.13897
G1 X68.936 Y92.127 E42.41317
G1 X71.099 Y92.977 E42.68918
G1 X73.300 Y93.765 E42.96688
G1 X75.538 Y94.491 E43.24618
G1 X77.807 Y95.152 E43.52695
G1 X80.107 Y95.748 E43.80907
G1 X82.432 Y96.279 E44.09240
G1 X84.782 Y96.743 E44.37682
G1 X87.151 Y97.141 E44.66219
G1 X89.538 Y97.471 E44.94835
G1 X91.939 Y97.733 E45.23517
G1 X94.350 Y97.928 E45.52250
G1 X96.767 Y98.053 E45.80987
G1 X98.385 Y98.099 E46.00209
G1 X100.000 Y98.114 E46.19395
G1 X101.619 Y98.099 E46.38622
G1 X104.038 Y98.019 E46.67374
G1 X106.455 Y97.870 E46.96132
G1 X108.864 Y97.653 E47.24849
G1 X111.260 Y97.368 E47.53510
G1 X113.599 Y97.022 E47.81597
G1 X115.221 Y96.743 E48.01147
G1 X117.568 Y96.279 E48.29559
G1 X119.892 Y95.748 E48.57860
G1 X121.430 Y95.357 E48.76714
G1 X122.954 Y94.938 E48.95479
G1 X124.463 Y94.490 E49.14182
G1 X125.961 Y94.013 E49.32852
G1 X128.172 Y93.247 E49.60644
G1 X130.345 Y92.418 E49.88268
G1 X131.776 Y91.830 E50.06643
G1 X133.189 Y91.214 E50.24938
G1 X135.260 Y90.246 E50.52098
G1 X137.476 Y89.115 E50.81648
G1 X141.682 Y89.120 E51.31603
G1 X142.675 Y89.319 E51.43630
G1 X143.196 Y89.464 E51.50049
G1 X143.709 Y89.633 E51.56467
G1 X144.214 Y89.828 E51.62885
G1 X144.708 Y90.047 E51.69304
G1 X145.190 Y90.290 E51.75722
G1 X145.661 Y90.556 E51.82140
G1 X146.117 Y90.845 E51.88559
G1 X146.559 Y91.156 E51.94977
G1 X146.985 Y91.489 E52.01395
G1 X147.394 Y91.842 E52.07814
G1 X147.786 Y92.214 E52.14232
G1 X148.158 Y92.606 E52.20650
G1 X148.511 Y93.015 E52.27069
G1 X148.844 Y93.441 E52.33487
G1 X149.155 Y93.883 E52.39905
G1 X149.444 Y94.340 E52.46324
G1 X149.710 Y94.810 E52.52742
G1 X149.953 Y95.292 E52.59161
G1 X150.172 Y95.787 E52.65579
G1 X150.367 Y96.291 E52.71997
G1 X150.536 Y96.804 E52.78416
G1 X150.681 Y97.325 E52.84834
G1 X150.799 Y97.851 E52.91238
G1 X150.886 Y98.359 E52.97355
G1 X150.880 Y101.675 E53.36748
G1 X150.743 Y102.409 E53.45611
G1 X150.495 Y103.328 E53.56922
G1 X150.224 Y104.085 E53.66466
G1 X149.834 Y104.950 E53.77738
G1 X149.375 Y105.773 E53.88921
G1 X148.925 Y106.447 E53.98554
G1 X148.339 Y107.189 E54.09776
G1 X147.787 Y107.783 E54.19409
G1 X147.091 Y108.422 E54.30632
G1 X146.452 Y108.921 E54.40265
G1 X145.663 Y109.442 E54.51487
G1 X144.950 Y109.835 E54.61158
G1 X144.216 Y110.171 E54.70741
G1 X143.325 Y110.496 E54.82011
G1 X142.410 Y110.743 E54.93268
G1 X141.634 Y110.886 E55.02643
G1 X137.477 Y110.886 E55.52008
G1 X135.260 Y109.754 E55.81570
G1 X133.188 Y108.786 E56.08730
G1 X131.776 Y108.170 E56.27024
G1 X130.381 Y107.596 E56.44945
G1 X128.172 Y106.753 E56.73022
G1 X125.961 Y105.987 E57.00816
G1 X124.463 Y105.510 E57.19487
G1 X122.953 Y105.062 E57.38190
G1 X121.430 Y104.642 E57.56955
G1 X119.867 Y104.245 E57.76105
G1 X117.571 Y103.722 E58.04079
G1 X116.002 Y103.404 E58.23093
G1 X113.641 Y102.984 E58.51567
G1 X111.260 Y102.632 E58.80158
G1 X108.863 Y102.347 E59.08820
G1 X106.455 Y102.130 E59.37536
G1 X104.081 Y101.983 E59.65788
G1 X102.421 Y101.920 E59.85512
G1 X100.000 Y101.886 E60.14275
G1 X97.578 Y101.920 E60.43036
G1 X95.961 Y101.981 E60.62255
G1 X94.339 Y102.073 E60.81547
G1 X91.938 Y102.267 E61.10164
G1 X90.748 Y102.397 E61.24373
G1 X90.766 Y103.113 F7800.000
G1 F378
G1 X89.625 Y103.238 E61.38011
G1 X87.298 Y103.559 E61.65901
G1 X85.689 Y103.821 E61.85266
G1 X83.354 Y104.259 E62.13485
G1 X81.041 Y104.763 E62.41596
G1 X79.512 Y105.136 E62.60291
G1 X77.996 Y105.537 E62.78918
G1 X76.493 Y105.967 E62.97483
G1 X75.040 Y106.414 E63.15536
G1 X72.799 Y107.164 E63.43604
G1 X70.631 Y107.966 E63.71048
G1 X69.207 Y108.534 E63.89266
G1 X67.801 Y109.129 E64.07390
G1 X66.415 Y109.750 E64.25429
G1 X65.050 Y110.398 E64.43381
G1 X63.705 Y111.071 E64.61239
G1 X62.699 Y111.600 E64.74733
G1 X58.300 Y111.600 E65.26983
G1 X57.571 Y111.471 E65.35772
G1 X56.872 Y111.300 E65.44325
G1 X56.322 Y111.133 E65.51145
G1 X55.780 Y110.939 E65.57980
G1 X55.249 Y110.719 E65.64815
G1 X54.728 Y110.473 E65.71649
G1 X54.221 Y110.202 E65.78484
G1 X53.727 Y109.906 E65.85319
G1 X53.249 Y109.586 E65.92154
G1 X52.787 Y109.243 E65.98989
G1 X52.342 Y108.878 E66.05823
G1 X51.915 Y108.492 E66.12658
G1 X51.508 Y108.085 E66.19493
G1 X51.122 Y107.658 E66.26328
G1 X50.757 Y107.214 E66.33163
G1 X50.414 Y106.751 E66.39997
G1 X50.094 Y106.273 E66.46832
G1 X49.798 Y105.779 E66.53667
G1 X49.527 Y105.272 E66.60502
G1 X49.286 Y104.762 E66.67206
G1 X48.912 Y103.811 E66.79339
G1 X48.739 Y103.266 E66.86129
G1 X48.593 Y102.713 E66.92916
G1 X48.400 Y101.697 E67.05196
G1 X48.400 Y98.300 E67.45546
G1 X48.529 Y97.571 E67.54335
G1 X48.700 Y96.872 E67.62888
G1 X48.867 Y96.322 E67.69708
G1 X49.061 Y95.780 E67.76543
G1 X49.281 Y95.249 E67.83378
G1 X49.527 Y94.728 E67.90212
G1 X49.798 Y94.221 E67.97047
G1 X50.094 Y93.727 E68.03882
G1 X50.414 Y93.249 E68.10717
G1 X50.757 Y92.787 E68.17552
G1 X51.122 Y92.342 E68.24386
